assets/Cloud with rain/Flat/cloud_with_rain_flat.svg

<svg width="32" height="32" viewBox="0 0 32 32" fill="none" xmlns="http://www.w3.org/2000/svg">
<path d="M27.9882 3.84328C24.0853 0.0393162 17.8656 0.0562961 13.9997 3.87007C13.4623 3.67545 12.883 3.56944 12.2804 3.56944C10.4752 3.56944 8.89299 4.51693 8.00116 5.93871C4.09183 6.18181 1 9.42597 1 13.3969C1 15.1533 1.61205 16.77 2.62341 18.0489C3.99738 19.8454 6.15767 21 8.5931 21H21.3084C24.4651 21 27.2531 19.4454 28.9564 17.0672C31.9727 13.1061 31.6493 7.4153 27.9882 3.84328Z" fill="#B4ACBC"/>
<path d="M14.575 4.70971C18.0419 1.15266 23.7332 1.09254 27.2902 4.55941C30.5868 7.77578 30.8774 12.9059 28.152 16.473C26.6289 18.6072 24.134 20 21.3084 20H8.5931C6.4789 20 4.60517 18.998 3.4128 17.4349C2.53105 16.3227 2 14.9199 2 13.3969C2 9.81983 4.89575 6.9241 8.47286 6.9241C8.51597 6.9241 8.55898 6.92452 8.60189 6.92536C9.24265 5.53472 10.6488 4.56944 12.2804 4.56944C12.9903 4.56944 13.6576 4.75221 14.2377 5.07325C14.346 4.94978 14.4584 4.82855 14.575 4.70971Z" fill="#F3EEF8"/>
<path d="M8.70995 22.9864L6.3186 26.2577C5.72852 27.0651 4.60014 27.2411 3.79267 26.651C2.9852 26.061 2.80921 24.9326 3.39929 24.1251L5.79063 20.8538C6.38071 20.0464 7.5091 19.8704 8.31657 20.4604C9.12403 21.0505 9.30003 22.1789 8.70995 22.9864Z" fill="#3F5FFF"/>
<path d="M15.3154 22.9864L12.9241 26.2577C12.334 27.0651 11.2056 27.2411 10.3981 26.651C9.59067 26.061 9.41468 24.9326 10.0048 24.1251L12.3961 20.8538C12.9862 20.0464 14.1146 19.8704 14.922 20.4604C15.7295 21.0505 15.9055 22.1789 15.3154 22.9864Z" fill="#3F5FFF"/>
<path d="M19.5295 26.2577L21.9209 22.9864C22.511 22.1789 22.335 21.0505 21.5275 20.4604C20.72 19.8704 19.5916 20.0464 19.0016 20.8538L16.6102 24.1251C16.0202 24.9326 16.1961 26.061 17.0036 26.651C17.8111 27.2411 18.9395 27.0651 19.5295 26.2577Z" fill="#3F5FFF"/>
</svg>

<svg xmlns="http://www.w3.org/2000/svg" width="32" height="32" fill="none"><path fill="#B4ACBC" d="M27.988 3.843C24.085.04 17.866.056 14 3.87A5.044 5.044 0 0 0 8 5.94 7.47 7.47 0 0 0 1 13.397c0 1.756.612 3.373 1.623 4.652A7.492 7.492 0 0 0 8.593 21h12.715a9.388 9.388 0 0 0 7.648-3.933c3.017-3.96 2.693-9.652-.968-13.224Z"/><path fill="#F3EEF8" d="M14.575 4.71c3.467-3.557 9.158-3.617 12.715-.15 3.297 3.216 3.587 8.346.862 11.913A8.388 8.388 0 0 1 21.308 20H8.593a6.492 6.492 0 0 1-5.18-2.565A6.482 6.482 0 0 1 2 13.397a6.47 6.47 0 0 1 6.602-6.472 4.049 4.049 0 0 1 5.636-1.852 8.88 8.88 0 0 1 .337-.363Z"/><path fill="#3F5FFF" d="m8.71 22.986-2.391 3.272a1.805 1.805 0 0 1-2.526.393 1.805 1.805 0 0 1-.394-2.526l2.392-3.271a1.806 1.806 0 0 1 2.526-.394c.807.59.983 1.719.393 2.526ZM15.315 22.986l-2.39 3.272a1.805 1.805 0 0 1-2.527.393 1.805 1.805 0 0 1-.393-2.526l2.391-3.271a1.805 1.805 0 0 1 2.526-.394c.807.59.983 1.719.393 2.526ZM19.53 26.258l2.39-3.272a1.805 1.805 0 0 0-.393-2.526 1.805 1.805 0 0 0-2.525.394l-2.392 3.271a1.805 1.805 0 0 0 .394 2.526c.807.59 1.935.414 2.525-.393Z"/></svg>
